svg/star_crescent.svg

<svg xmlns="http://www.w3.org/2000/svg" viewBox="0 0 24 24"><path d="M12.3 2H12A10 10 0 0 0 2 12a10 10 0 0 0 10 10c3 0 4.7-1 6.5-2.5C13 21 8 17 8 12s5-9 10.5-7.5A8.56 8.56 0 0 0 12.3 2m4.5 4.2-1.5 3.5-3.7.3 2.9 2.5-.9 3.5 3.2-2 3.2 2-1-3.5 3-2.5-3.7-.3z"/></svg>

<svg xmlns="http://www.w3.org/2000/svg" id="mdi-star-crescent" viewBox="0 0 24 24"><path d="M12.3,2C12.2,2 12.1,2 12,2A10,10 0 0,0 2,12A10,10 0 0,0 12,22C15,22 16.7,21 18.5,19.5C13,21 8,17 8,12C8,7 13,3 18.5,4.5C16.86,2.86 14.62,1.96 12.3,2M16.8,6.2L15.3,9.7L11.6,10L14.5,12.5L13.6,16L16.8,14L20,16L19,12.5L22,10L18.3,9.7L16.8,6.2Z" /></svg>
